X:3275
T:Compliments to Melissa Emmons
R:jig
C:Brenda Stubbert, SOCAN
Q:333
L:1/8
M:6/8
K:D
ag|fef d2 A|Bcd Aag|fef dBA|Bee eag|!
fef d2 A|Bcd Aag|fga ABc|d3 d:|!
|:fg|a^ga f2 a|gfg Bed|cde Aag|faf gfg|
a^ga f=ga|gfg Bed|cde ABc| d3 d:|


